X: 344
%
U:~=!turn!
T: Lord Kinneard
C:
O:Scotland
B:Keith Norman MacDonald : "The Skye collection of the best reels & strathspeys extant" : 1887
Z:Ralph Palmer
R:Reel
M:C|
L:1/8
K:D
A !segno!| {/c}d2 d2 {/c}dA{/G}FD | {/c}d2 (Ad) TB2 (AB) | {/c}dABF AF{/c}dF | E/2E/2E (FA) TB2 A :: g | fdad feeg |
fdad f2 (eg) | [1 fdad ec{/c}dF | E/2E/2E (FA) TB2 A :| [2 {/^g}aefd ec{/c}dF | EFGA BdAd !segno!|]


